!!!COM: Bach, Johann Sebastian
!!!OTL@@DE: 50. In allen meinen Taten
!!!OTL@EN: In all my deeds
!!!SCA: 244.37
**harm	**root	**kern	**kern	**kern	**kern
*staff2	*	*staff2	*staff2	*staff1	*staff1
*Iorgan	*Iorgan	*Iorgan	*Iorgan	*Iorgan	*Iorgan
!	!	!bass	!tenor	!alto	!sprno
*	*	*clefF4	*clefF4	*clefG2	*clefG2
*k[b-e-a-d-g-]	*k[b-e-a-d-g-]	*k[b-e-a-d-g-]	*k[b-e-a-d-g-]	*k[b-e-a-d-g-]	*k[b-e-a-d-g-]
*met(c)	*met(c)	*met(c)	*met(c)	*met(c)	*met(c)
*D-:	*D-:	*D-:	*D-:	*D-:	*D-:
*M4/4	*M4/4	*M4/4	*M4/4	*M4/4	*M4/4
*MM60	*MM60	*MM60	*MM60	*MM60	*MM60
I	4FF	4D-	4A-	4d-	4f
=1	=1	=1	=1	=1	=1
IV	4BB-	4G-	4B-	4B-	4d-
viiob	4EE	8FL	8A-L	4c	4e-
.	.	8E-J	8G-J	.	.
I	2FF	4.D-	4.F	8d-L	(8fL
.	.	.	.	8e-J	8g-J
.	.	.	.	4f	4a-)
.	.	8C	8E-	.	.
=2	=2	=2	=2	=2	=2
IV7b	4BB-	4BB-	4D-	4f	2g-
V7b	4CC	4C	4A-	4e-	.
I;	4FF;	4D-;	4A-;	4d-;	4f;
I	4FF	8D-L	4A-	4d-	8fL
.	.	8E-J	.	.	8g-J
=3	=3	=3	=3	=3	=3
Ib	4FF	4F	4A-	8d-L	4a-
.	.	.	.	8cJ	.
Ib	4FF	8FFL	4A-	8d-L	4a-
.	.	8GG-J	.	8e-J	.
V	4CC	4AA-	4A-	8cL	4e-
.	.	.	.	8B-J	.
iiib	4AA	4FF	8A-L	4A-	(8fL
.	.	.	8GJ	.	8e-J
=4	=4	=4	=4	=4	=4
viio/V	2BB	2BB-	8FL	4A-	2d-)
.	.	.	8E-J	.	.
.	.	.	4D-	4G	.
V;	4CC;	4AA-;	4E-;	4A-;	4c;
V7	4CC	4AA-	4G-y	4c	4A-
=5	=5	=5	=5	=5	=5
vi	4DD	4BB-	4F	4B-	4d-
Vb	4CC	4C	4E-	4A-	4e-
I	4FF	4D-	4D-	4A-	8fL
.	.	.	.	.	16g-L
.	.	.	.	.	16a-JJ
IV	4BB-	4GG-	4D-	4B-	8g-L
.	.	.	.	.	8fJ
=6	=6	=6	=6	=6	=6
V;	2.CC;	2.AA-;	2.A-;	2.c;	2.e-;
Vb/VI	4AA	4AA	4F	4c	4f
=7	=7	=7	=7	=7	=7
!!linebreak: 2
vi	4DD	4BB-	4F	4B-	4d-
Vb	4CC	4C	4E-	4A-	4e-
I	4FF	4D-	8D-L	4A-	8fL
.	.	.	8E-J	.	8g-J
V7b/II	4DD	4D	4F	4B-	4a-
=8	=8	=8	=8	=8	=8
ii	2GG	4E-	8E-L	4B-	2g-
.	.	.	8FJ	.	.
.	.	4EE-	8G-L	4e-	.
.	.	.	8A-J	.	.
V/II;	4DD;	4BB-;	4B-;	4d;	4f;
vi	4DD	4B-	4B-	4d-	8fL
.	.	.	.	.	8g-J
=9	=9	=9	=9	=9	=9
Ib	4FF	8FL	8A-L	4d-	4a-
.	.	8E-	8G-	.	.
Ib	4FF	8F	8A-	4d-	4a-
.	.	8G-J	8B-J	.	.
V	4CC	4A-	4c	8cL	4e-
.	.	.	.	8B-J	.
I	4FF	8D-L	4d-	4A-	(8fL
.	.	8CJ	.	.	8e-J
=10	=10	=10	=10	=10	=10
vi7	4DD	8BB-L	8D-L	4A-	2d-)
.	.	8AA-J	8FJ	.	.
V7c/V	4GG	4BB-	8E-L	4G	.
.	.	.	8D-J	.	.
V;	4CC;	4AA-;	4E-;	4A-;	4c;
V7c	4CC	4GG-	4C	4E-	4A-
=11	=11	=11	=11	=11	=11
Ib	4FF	4FF	8D-L	4A-	4d-
.	.	.	8A-J	.	.
ii	4GG	4EE-	8B-L	4G-	4e-
.	.	.	8cJ	.	.
I	4FF	4DD-	8d-L	8FL	4f
.	.	.	8A-J	8A-J	.
IV7b	4BB-	4BB-	8G-L	4d-	8e-L
.	.	.	8D-J	.	16fL
.	.	.	.	.	16g-JJ
=12	=12	=12	=12	=12	=12
Ic	4FF	8AA-L	4.A-	4d-	4f
.	.	8GG-J	.	.	.
V7	4CC	4AA-	.	4c	4e-
.	.	.	8G-	.	.
I;	4FF;	4DD-;	4F;	4A-;	4d-;
==	==	==	==	==	==
*-	*-	*-	*-	*-	*-
!!!ENC: Craig Stuart Sapp
!!!END: 2004/12/06/
!!!ONB: Harmony and Root analysis done manually by Craig Sapp
!!chor2scor: -l 2 -s 0.6 -o %b.pmx
